X: 13163
T: First Of May, The
R: hornpipe
M: 4/4
K: Adorian
EA AB c2 c2|Ad de f2 ef|gf e^c df ec|d^c AF G2 FG|
EA AB c2 c2|Ad de f2 ef|gf e^c de dc|1 A2 (3GAB A2 FG:|2 A2 (3GAB A2 (3efg||
|:~a2 af ~g2 ge|~f2 fd ~e2 ef|gf e^c df ec|d^c AF G2 FG|
EA AB c2 c2|Ad de f2 ef|gf e^c de dc|1 A2 (3GAB A2 (3efg:|2 A2 (3GAB A2 FG||

